X:920
T:Sergeant Early's Dream
M:4/4
L:1/8
K:DDor
cB|: A2 DE FAcA|GECD E2 EF|DA,DE FEFG|Ad d2 fedc|
A2 DE FAcA| GECD EDEF|DA,DE FAcA|1 GFEF D2 cB:|2 GFEF D2 FG||
Add^c d3 e|f2 ed cAGF|ECEG cBcd|ecdc AcGc|
Add^c d3 e|f2 ed cAGc| AE E2 cE E2|1 CEGE D2 FG:|2 CEGE D2 cB|>|
